X: 3524
T: Big Country
R: reel
M: 4/4
K: Emajor
B,C|:E2 EF G2 FE|G2 FE "A"CE3|z6 B,C|"E"E2 EF G2 GB|c2 BG "Abm"B4|
z6 GB|"Dbm"c2 cB "E"G2 FE|"E"G2 z2 FE "A"CE|z6 B,C|"E"E2 EF G2 AG|
[1 "B7"F2 ED "E"E4|"E"z6 B,C:|2 "B7"F2 ED "E"E4|"E"z8||
|:G"Dbm"e3 G"Abm"d3|E"A"c3 E"E"B3|G"Dbm"e3 G"Abm"d3|E"A"c3 B"E"g3|
G"Dbm"e3 G"Abm"d3|1 E"A"c3 d"E"B2C/D/|"Dbm"E2 E"Abm"D2E2"A"G|
"A"z8:|2 E"A"c3 d"E"B2G|"Dbm"E2 E"Abm"D2E2"A"G|z6 B,C|"E"E8|

